icon-svg/motion-sensor.svg

<svg xmlns="http://www.w3.org/2000/svg" fill="#44739e" viewBox="0 0 24 24"><path d="M16 20c-2.209 0-4-1.791-4-4s1.791-4 4-4 4 1.791 4 4-1.791 4-4 4m0-14c.553 0 1 .447 1 1s-.447 1-1 1-1-.447-1-1 .447-1 1-1m8-2H8C5.8 4 4 5.8 4 8v16c0 2.2 1.8 4 4 4h16c2.2 0 4-1.8 4-4V8c0-2.2-1.8-4-4-4"/></svg>

<?xml version="1.0" encoding="UTF-8"?>
<svg width="32px" height="32px" viewBox="0 0 32 32" version="1.1" fill="#44739e" xmlns="http://www.w3.org/2000/svg" xmlns:xlink="http://www.w3.org/1999/xlink">
            <path d="M16,20 C13.791,20 12,18.209 12,16 C12,13.791 13.791,12 16,12 C18.209,12 20,13.791 20,16 C20,18.209 18.209,20 16,20 M16,6 C16.553,6 17,6.447 17,7 C17,7.553 16.553,8 16,8 C15.447,8 15,7.553 15,7 C15,6.447 15.447,6 16,6 M24,4 L8,4 C5.8,4 4,5.8 4,8 L4,24 C4,26.2 5.8,28 8,28 L24,28 C26.2,28 28,26.2 28,24 L28,8 C28,5.8 26.2,4 24,4"></path>

</svg>
